Newaita/actions/32/filename-discnumber-amarok.svg

<?xml version="1.0" encoding="UTF-8"?>
<svg xmlns="http://www.w3.org/2000/svg" xmlns:xlink="http://www.w3.org/1999/xlink" width="32pt" height="32pt" viewBox="0 0 32 32" version="1.1">
<g id="surface1">
<path style=" stroke:none;fill-rule:nonzero;fill:rgb(25.882354%,25.882354%,25.882354%);fill-opacity:1;" d="M 8.929688 1.574219 C 8.378906 1.574219 7.9375 2.015625 7.9375 2.566406 L 7.9375 8.1875 L 2.316406 8.1875 C 1.765625 8.1875 1.324219 8.628906 1.324219 9.179688 C 1.324219 9.730469 1.765625 10.171875 2.316406 10.171875 L 7.9375 10.171875 L 7.9375 22.082031 L 2.316406 22.082031 C 1.765625 22.082031 1.324219 22.523438 1.324219 23.074219 C 1.324219 23.621094 1.765625 24.066406 2.316406 24.066406 L 7.9375 24.066406 L 7.9375 29.6875 C 7.9375 30.238281 8.378906 30.679688 8.929688 30.679688 C 9.480469 30.679688 9.921875 30.238281 9.921875 29.6875 L 9.921875 24.066406 L 21.832031 24.066406 L 21.832031 29.6875 C 21.832031 30.238281 22.273438 30.679688 22.824219 30.679688 C 23.371094 30.679688 23.816406 30.238281 23.816406 29.6875 L 23.816406 24.066406 L 29.4375 24.066406 C 29.988281 24.066406 30.429688 23.621094 30.429688 23.074219 C 30.429688 22.523438 29.988281 22.082031 29.4375 22.082031 L 23.816406 22.082031 L 23.816406 10.171875 L 29.4375 10.171875 C 29.988281 10.171875 30.429688 9.730469 30.429688 9.179688 C 30.429688 8.628906 29.988281 8.1875 29.4375 8.1875 L 23.816406 8.1875 L 23.816406 2.566406 C 23.816406 2.015625 23.371094 1.574219 22.824219 1.574219 C 22.273438 1.574219 21.832031 2.015625 21.832031 2.566406 L 21.832031 8.1875 L 9.921875 8.1875 L 9.921875 2.566406 C 9.921875 2.015625 9.480469 1.574219 8.929688 1.574219 Z M 9.921875 10.171875 L 21.832031 10.171875 L 21.832031 22.082031 L 9.921875 22.082031 Z M 9.921875 10.171875 "/>
</g>
</svg>

<svg xmlns="http://www.w3.org/2000/svg" width="32pt" height="32pt" viewBox="0 0 32 32"><path d="M8.93 1.574a.989.989 0 0 0-.992.992v5.621H2.316a.989.989 0 0 0-.992.993c0 .55.442.992.992.992h5.621v11.91h-5.62a.989.989 0 0 0-.993.992c0 .547.442.992.992.992h5.621v5.622c0 .55.442.992.993.992.55 0 .992-.442.992-.992v-5.622h11.91v5.622c0 .55.441.992.992.992a.991.991 0 0 0 .992-.992v-5.622h5.622c.55 0 .992-.445.992-.992a.989.989 0 0 0-.992-.992h-5.622v-11.91h5.622c.55 0 .992-.442.992-.992a.989.989 0 0 0-.992-.992h-5.622V2.566a.991.991 0 0 0-.992-.992.989.989 0 0 0-.992.992v5.621H9.922v-5.62a.989.989 0 0 0-.992-.993zm.992 8.598h11.91v11.91H9.922zm0 0" fill="#424242"/></svg>
